X: 10968
T: Drunk At Night And Dry In The Morning
R: waltz
M: 3/4
K: Gmajor
GA|:B4 A2|BA GA B2|D2 G2 AB|c2B2A2|
BA GA B2|DC B,C D2|E2G2F2|G4:|
z2|G2 de dB|G2 de dB|G2d2d2|d3cB2|
G2 de dB|G2 de dB|G2B2B2|B3 A GA|
BA GA B2|DC B,C D2|E2 G2 AB|c2B2A2|
BA GA B2|DC B,C D2|E2G2F2|G4||
|:(3G,A,B,|C2 EC EC|B,2 DB, DB,|G,2 G2 AB|
c2B2A2|1 C2 EC EC|B,2 DB, DB,|G,2 G2 F2|G4:|2 BA GA B2|
DC B,C D2|E2G2F2|G4||
z2|G2e2e2|G2d2d2|G2d2d2|d3cB2|
G2e2e2|G2d2d2|G2B2B2|B3 A GA|
BA GA B2|DC B,C D2|E2 G2 AB|c2B2A2|
BA GA B2|DC B,C D2|E2G2F2|G4||

